X: 2
T: The Home Ruler
R: hornpipe
M: 4/4
L: 1/8
K: Dmaj
|: [FA]>[FA] |\
D2 F>A D>AF>A | d>fe>d B2 d>B | A2 A>B A>FD>E | (3FED E>D (3Bcd A3/[F/B/] |
D2 F>A D2 (3FGA | d>A (3fed B2 d>B | A>^GA>B A>F (3EF=G | (3FGF D2 D2 :|
|: (3ABc |d2 d>c d2- d>f | a>fb>f a>fe>d | e>fe>d B>Ad>e | f>de>d (3Bcd A>B |
(3ded d>c d2 d>f | a>fb>f a>f (3fed | e2 (3fed B>Ad>B | A>FE3/[C/F/] D2 :|


Tune 310	Setting 23387

